!!! OTL: Berkowitz246
!!! Chapter: 1
!!! Section: II
!!! Page: 57
!!! Mode: 
!!! Encoder: DJB
**kern
*staff1
*I"Piano
=1-
*clefC4
*k[b-e-a-]
*E-:
*M4/4
4c\
8.G\L
16c\Jk
2B-\
=2
4A-\
8.E-/L
16A-/Jk
2G/
=3
4F/
8.E-/L
16D/Jk
4C/
8.D/L
16E-/Jk
=4
4F/
4G/
2A-\
=5
4G/
4An\
2Bn\
=6
4c\
8.G\L
16c\Jk
4B-\
8.F/L
16B-/Jk
=7
4A-\
8.E-/L
16A-/Jk
4G/
4r
=8
!!linebreak:original
4A-\
8.G/L
16F/Jk
4E-/
8.D/L
16C/Jk
=9
4G/
4G/
2C/
==
*-
